X:1
T:Brantford, 87.87 D
T:Brantford, 87.87 D
T:Benjamin Carl Unseld, 1894
T:Public Domain Courtesy of the Cyber Hymnal™
C:Benjamin Carl Unseld, 1894
Z:Public Domain
Z:Courtesy of the Cyber Hymnal™
%%score ( 1 2 ) 3
L:1/8
Q:1/4=107
M:4/4
K:F
V:1 treble 
V:2 treble 
V:3 bass 
V:1
 [FA]2 [EG]2 F3 [CG] | (FE) (DE) [CF]2 C2 | [A,F]2 [CA]2 D2 [FB]2 | [FA]2 [FG]2 [EG]4 | %4
 [FA]2 [EG]2 F3 [CG] | (FE) (DE) [CF]2 C2 | [CF]2 [CA]2 D2 [FB]2 | [FA]2 [EG]2 F4 | %8
 [FA]2 [Fc]2 [Fc]3 [FA] | ([Fd][_Ec]) ([DB][Ec]) [Fd]2 [FB]2 | [FA]2 [Fc]2 [Fc]3 [FA] | %11
 [FG]2 [Fd]2 [Ec]4 | [FA]2 [EG]2 F3 [CG] | (FE) (DE) [CF]2 C2 | [CF]2 [_EA]2 [Dd]3 [FB] | %15
 [FA]2 [EG]2 F4 |] %16
V:2
 x4 F3 x | C2 C2 x C2 x | x4 D2 x2 | x8 | x4 F3 x | C2 C2 x C2 x | x4 D2 x2 | x4 F4 | x8 | x8 | %10
 x8 | x8 | x4 F3 x | C2 C2 x C2 x | x8 | x4 F4 |] %16
V:3
 [F,C]2 [C,B,]2 [F,A,]2 [A,,C]2 | [C,G,]2 [C,B,]2 [F,A,]2 [E,G,]2 | %2
 [D,F,]2 [C,F,]2 [B,,B,]2 [D,B,]2 | [F,C]2 [G,=B,]2 [C,C]4 | [F,C]2 [C,B,]2 [F,A,]2 [A,,C]2 | %5
 [C,G,]2 [C,B,]2 [F,A,]2 [G,B,]2 | [A,C]2 [F,C]2 [B,,B,]2 [D,B,]2 | [C,C]2 [C,B,]2 [F,A,]4 | %8
 [F,C]2 [F,A,]2 [F,A,]3 [F,C] | [B,,B,]2 [B,,B,]2 [B,,B,]2 [D,B,]2 | [F,C]2 [F,A,]2 [F,A,]3 [F,C] | %11
 [G,=B,]2 [G,B,]2 [C,C]4 | [F,C]2 [C,B,]2 [F,A,]2 [A,,C]2 | [C,G,]2 [C,B,]2 [F,A,]2 [G,B,]2 | %14
 [A,C]2 [F,C]2 [B,,B,]3 [D,B,] | [C,C]2 [C,B,]2 [F,A,]4 |] %16

